X:1
T:G minor       Solomon Howe, 1799
T:Solomon Howe, 1799 86. 86. 86. 86. (C. M. D.)
T:Expectation
T:Transcribed from The Worshipper's Assistant, 1799.
%%score [ 1 2 3 4 ]
L:1/8
Q:1/4=100
M:2/2
K:Bb
V:1 treble nm="Tr." snm="Tr."
V:2 treble nm="C." snm="C."
V:3 treble-8 nm="T." snm="T."
V:4 bass nm="B." snm="B."
V:1
 G4 d2 d2 | B2 c2 B2 G2 | A2 B2 c2 A2 | B2 A2 B4 | B4 d2 d2 | B2 d2 d2 A2 | A4 c4 | A2 Bc d2 d2 | %8
w: 1.~My soul, sur-|vey th'im- por- tant|cause For which the|world was made:|With joy re-|vere God's sa- cred|laws, Which|ought to * be o-|
 d8 |:[M:6/4] z4 z2 d6 | d4 c2 B4 B2 | A4 G2 B4 e2 | d4 d2 d4 cB | A6 B6 | B4 B2 A4 B2 | %15
w: beyed.|His|first com- mand to|sim- ple men, Is|to be- lieve his *|Son; To|seek a par- don|
 (c3 B) A2 A4 A2 | d4 Bc d4 d2 | d12 :| %18
w: for * their sins Be-|fore his * gra- cious|throne.|
V:2
 D4 D2 F>E | D>E F2 G2 FE | F2 F2 D2 F>E | D2 E>F G4 | G4 G2 F2 | G2 F>E D2 F2 | F4 G4 | %7
 F2 GF E2 D2 | D8 |:[M:6/4] z4 z2 D6 | G4 A2 G4 G2 | D4 EF G4 AF | G4 D2 G4 G2 | ^F6 G6 | %14
 D4 D2 D4 ^F2 | G4 F2 ^F4 =F2 | G4 G2 ^F4 F2 | G12 :| %18
V:3
 G4 B2 A2 | G2 A2 B2 c2 | d2 f2 g2 c2 | f2 e2 d4 | d4 B2 A2 | G2 A2 B2 c2 | d4 e4 | d>e dc B2 A2 | %8
w: 2.~This is the|most im- por- tant|thing Which mor- tals|can pur- sue;|Pre- sent and|fu- ture joys on|high, Com-|plete * and * e- ver|
 G8 |:[M:6/4] z4 z2 G6 | B4 c2 d4 e2 | f4 e2 d4 c2 | B4 A2 B4 c2 | d6 d6 | g4 g2 f4 d2 | %15
w: new.|This|one thing need- ful|stands im- pressed On|us by Christ's com-|mand: He|bids us choose e-|
 e4 c2 d4 c2 | B4 dc B4 A2 | G12 :| %18
w: ter- nal bliss A-|bove at * his right|hand.|
V:4
 G,4 G,2 D,2 | G,2 F,2 E,2 C,2 | D,2 D,2 C,2 F,2 | G,2 D,2 [G,,G,]4 | [G,,G,]4 G,2 D,2 | %5
 E,2 D,2 G,2 F,>E, | D,4 C,4 | D,2 C,2 B,,>C, D,2 | G,,8 |:[M:6/4] z4 z2 G,6 | G,4 F,2 G,4 E,2 | %11
 D,4 G,2 G,4 A,2 | G,4 D,2 G,4 F,E, | D,6 G,6 | G,4 G,2 D,4 D,2 | C,4 F,E, D,4 F,2 | %16
 G,4 G,2 D,4 D,2 | G,,12 :| %18

